images/icons/food.svg

<svg width="84" height="84" viewBox="0 0 84 84" fill="none" xmlns="http://www.w3.org/2000/svg">
<path d="M74.9 57.7H64.3H19.6H9.1C6.8 57.7 5 59.6 5 62V65.5C5 67.9 6.9 69.7999 9.1 69.7999H10V70.9C10 76.4 14.3 81 19.6 81H64.2C69.5 81 73.8 76.5 73.8 70.9V69.7999H74.7C77 69.7999 78.8 67.9 78.8 65.5V62C79 59.7 77.1 57.7 74.9 57.7ZM71 70.9C71 74.8 68 77.9 64.3 77.9H19.6C15.9 77.9 12.9 74.7 12.9 70.9V69.7999H71V70.9ZM76.1 65.5C76.1 66.2 75.5 66.7999 74.9 66.7999H73.9H71H13H10H9C8.3 66.7999 7.8 66.2 7.8 65.5V62C7.8 61.3 8.4 60.7 9 60.7H12.7H19.6H64.2H71.1H74.8C75.5 60.7 76 61.3 76 62C76.1 62 76.1 65.5 76.1 65.5Z" fill="black"/>
<path d="M20.6001 49.4001L26.0001 53.5001L31.3001 49.4001L36.6001 53.5001L41.9001 49.4001L47.3001 53.5001L52.6001 49.4001L57.9001 53.5001L63.3001 49.4001L68.6001 53.5001L74.8001 48.8001L73.1001 46.3001L68.6001 49.7001L63.3001 45.6001L57.9001 49.7001L52.6001 45.6001L47.3001 49.7001L41.9001 45.6001L36.6001 49.7001L31.3001 45.6001L26.0001 49.7001L20.6001 45.6001L15.3001 49.7001L10.8001 46.3001L9.1001 48.8001L15.3001 53.5001L20.6001 49.4001Z" fill="black"/>
<path d="M13 42.5H70.9H73.8C73.8 41.9 73.9 41.3 73.9 40.6C73.9 40.2 73.9 39.8 73.9 39.4C73.2 23.7 59.2 11 42 11C24.7 11 10.7 23.7 10 39.5C10 39.9 10 40.3 10 40.7C10 41.3 10 42 10.1 42.6H13V42.5ZM42 14C57.6 14 70.4 25.3 71 39.5H13C13.6 25.4 26.4 14 42 14Z" fill="black"/>
<path d="M42.0001 28.3C43.0494 28.3 43.9001 27.4046 43.9001 26.3C43.9001 25.1955 43.0494 24.3 42.0001 24.3C40.9508 24.3 40.1001 25.1955 40.1001 26.3C40.1001 27.4046 40.9508 28.3 42.0001 28.3Z" fill="black"/>
<path d="M34.2001 23.2C35.2494 23.2 36.1 22.3045 36.1 21.2C36.1 20.0954 35.2494 19.2 34.2001 19.2C33.1507 19.2 32.3 20.0954 32.3 21.2C32.3 22.3045 33.1507 23.2 34.2001 23.2Z" fill="black"/>
<path d="M49.7001 23.2C50.7494 23.2 51.6 22.3045 51.6 21.2C51.6 20.0954 50.7494 19.2 49.7001 19.2C48.6507 19.2 47.8 20.0954 47.8 21.2C47.8 22.3045 48.6507 23.2 49.7001 23.2Z" fill="black"/>
</svg>

<svg viewBox="0 0 84 84" xmlns="http://www.w3.org/2000/svg"><path d="M74.9 57.7H9.1C6.8 57.7 5 59.6 5 62v3.5c0 2.4 1.9 4.3 4.1 4.3h.9v1.1c0 5.5 4.3 10.1 9.6 10.1h44.6c5.3 0 9.6-4.5 9.6-10.1v-1.1h.9c2.3 0 4.1-1.9 4.1-4.3V62a4 4 0 0 0-3.9-4.3ZM71 70.9c0 3.9-3 7-6.7 7H19.6c-3.7 0-6.7-3.2-6.7-7v-1.1H71v1.1Zm5.1-5.4c0 .7-.6 1.3-1.2 1.3H9c-.7 0-1.2-.6-1.2-1.3V62c0-.7.6-1.3 1.2-1.3h65.8c.7 0 1.2.6 1.2 1.3.1 0 .1 3.5.1 3.5ZM20.6 49.4l5.4 4.1 5.3-4.1 5.3 4.1 5.3-4.1 5.4 4.1 5.3-4.1 5.3 4.1 5.4-4.1 5.3 4.1 6.2-4.7-1.7-2.5-4.5 3.4-5.3-4.1-5.4 4.1-5.3-4.1-5.3 4.1-5.4-4.1-5.3 4.1-5.3-4.1-5.3 4.1-5.4-4.1-5.3 4.1-4.5-3.4-1.7 2.5 6.2 4.7 5.3-4.1ZM13 42.5h60.8c0-.6.1-1.2.1-1.9v-1.2C73.2 23.7 59.2 11 42 11c-17.3 0-31.3 12.7-32 28.5v1.2c0 .6 0 1.3.1 1.9H13v-.1ZM42 14c15.6 0 28.4 11.3 29 25.5H13C13.6 25.4 26.4 14 42 14ZM42 28.3c1.05 0 1.9-.9 1.9-2s-.85-2-1.9-2c-1.05 0-1.9.9-1.9 2s.85 2 1.9 2Zm-7.8-5.1c1.05 0 1.9-.9 1.9-2s-.85-2-1.9-2c-1.05 0-1.9.9-1.9 2s.85 2 1.9 2Zm15.5 0c1.05 0 1.9-.9 1.9-2s-.85-2-1.9-2c-1.05 0-1.9.9-1.9 2s.85 2 1.9 2Z" fill="#81b3d2"/></svg>
